packages/core/src/svgs/cusd.svg

<svg width="24" height="24" viewBox="0 0 24 24" fill="none" xmlns="http://www.w3.org/2000/svg">
<g clip-path="url(#clip0_31_8917)">
<path d="M0 0H24V24H0V0Z" fill="#45CD85"/>
<path d="M14.8072 5.59293C15.2872 5.63578 15.7843 5.7215 16.2858 5.85864V7.2215C16.0286 7.03293 15.3943 6.6515 14.2158 6.6515C13.0372 6.6515 12.8315 7.15721 12.8743 7.41435C12.8401 7.53007 12.9601 7.81293 13.6886 8.01436C13.8472 8.05721 14.0401 8.0915 14.2629 8.13436C15.3815 8.33578 17.1429 8.6615 17.1429 10.3629C17.1429 11.5415 16.1529 12.2529 14.8072 12.3986L14.9572 13.2858H13.6286L13.7701 12.4029C13.0065 12.3288 12.2621 12.1199 11.5715 11.7858V10.3629C12.1801 10.7486 15.6215 11.9615 15.8015 10.3629C15.8572 9.84007 15.1372 9.68578 14.2758 9.49721C13.0629 9.24007 11.5715 8.91435 11.5715 7.41864C11.5715 6.29578 12.4972 5.71721 13.7658 5.59721L13.6286 4.71436H14.9615L14.8115 5.59293H14.8072ZM11.5715 17.1429C12.4057 17.1433 13.222 16.9002 13.9201 16.4435C14.6182 15.9867 15.1678 15.3361 15.5015 14.5715H16.8729C16.5793 15.4791 16.0577 16.2961 15.3578 16.9443C14.658 17.5925 13.8035 18.0501 12.8761 18.2734C11.9487 18.4967 10.9795 18.4781 10.0614 18.2195C9.1432 17.9609 8.30682 17.4709 7.63232 16.7964C6.95782 16.1219 6.46779 15.2855 6.20917 14.3673C5.95055 13.4492 5.93199 12.48 6.15528 11.5526C6.37857 10.6252 6.83622 9.77069 7.48441 9.07087C8.1326 8.37104 8.94961 7.84936 9.8572 7.55578V8.92721C8.95353 9.3203 8.21294 10.0128 7.76016 10.8881C7.30737 11.7634 7.17006 12.7679 7.37135 13.7326C7.57264 14.6973 8.10023 15.5631 8.86526 16.1843C9.6303 16.8055 10.586 17.144 11.5715 17.1429Z" fill="white"/>
</g>
<defs>
<clipPath id="clip0_31_8917">
<rect width="24" height="24" fill="white"/>
</clipPath>
</defs>
</svg>

<svg xmlns="http://www.w3.org/2000/svg" width="24" height="24" fill="none" viewBox="0 0 24 24"><g clip-path="url(#a)"><path fill="#45CD85" d="M0 0h24v24H0z"/><path fill="#fff" d="M14.807 5.593c.48.043.977.128 1.479.266V7.22c-.257-.188-.892-.57-2.07-.57-1.179 0-1.384.506-1.342.763-.034.116.086.399.815.6.158.043.351.078.574.12 1.119.202 2.88.527 2.88 2.229 0 1.178-.99 1.89-2.336 2.036l.15.887H13.63l.141-.883a6.5 6.5 0 0 1-2.198-.617v-1.423c.608.386 4.05 1.598 4.23 0 .055-.523-.665-.677-1.526-.866-1.213-.257-2.704-.583-2.704-2.078 0-1.123.925-1.702 2.194-1.822l-.137-.883h1.332l-.15.879zm-3.235 11.55a4.29 4.29 0 0 0 3.93-2.572h1.37a5.571 5.571 0 1 1-7.015-7.015v1.371a4.286 4.286 0 0 0 1.715 8.216"/></g><defs><clipPath id="a"><path fill="#fff" d="M0 0h24v24H0z"/></clipPath></defs></svg>
